app/images/customer-modal/third-modal/subscribe-outline.svg

<svg width="60" height="64" viewBox="0 0 60 64" fill="none" xmlns="http://www.w3.org/2000/svg">
<path d="M54.0043 43.7727H52.171C52.3354 43.2243 52.4204 42.6504 52.4204 42.0624V5.93746C52.4204 2.66359 49.7568 0 46.4829 0H5.93746C2.66359 0 0 2.66359 0 5.93746V17.2288C0 17.7465 0.419758 18.1663 0.937461 18.1663C1.45516 18.1663 1.87492 17.7465 1.87492 17.2288V12.9223H31.2279C31.7456 12.9223 32.1654 12.5026 32.1654 11.9849C32.1654 11.4672 31.7456 11.0474 31.2279 11.0474H1.87492V5.93746C1.87492 3.69737 3.69737 1.87492 5.93746 1.87492H46.4829C48.723 1.87492 50.5454 3.69737 50.5454 5.93746V11.0474H43.2475V9.64421C43.2475 8.57582 42.3784 7.70669 41.31 7.70669H39.4357C38.3223 7.70669 37.3279 8.37131 36.9022 9.4001C35.5772 12.601 32.4826 14.6694 29.0182 14.6694H13.8288C11.9334 14.6694 10.3913 16.2116 10.3913 18.107V18.7563H7.72206C5.84152 18.7563 4.31165 20.2862 4.31165 22.1668C4.31165 24.0473 5.84152 25.5772 7.72206 25.5772H10.3914V26.2264C10.3914 28.1218 11.9335 29.6639 13.8289 29.6639H16.0688L17.7088 32.7812C17.9509 33.2439 18.5261 33.4132 18.975 33.1743C19.4332 32.9332 19.6092 32.3663 19.3681 31.9082L18.1874 29.6641H25.3269L25.0062 33.1423C24.7849 35.5428 25.7122 37.9499 27.4869 39.5815L27.8118 39.8801C27.1634 40.6595 26.7727 41.6605 26.7727 42.7512V42.9411L25.7443 43.3993C25.5944 43.4661 25.417 43.4048 25.3407 43.2594L21.3342 35.6449C21.0931 35.1866 20.5262 35.0106 20.0681 35.2517C19.6098 35.4928 19.4338 36.0598 19.6749 36.5179L23.6813 44.1324C24.07 44.8715 24.8322 45.3279 25.6219 45.3007C26.2522 45.279 26.7727 44.9939 26.7727 44.9939V46.1254H5.93746C3.69737 46.1254 1.87492 44.3029 1.87492 42.0628V21.8243C1.87492 21.3066 1.45516 20.8869 0.937461 20.8869C0.419758 20.8869 0 21.3066 0 21.8243V42.0626C0 45.3366 2.66359 48 5.93746 48H26.7726V53.9489C26.7726 56.4282 28.7897 58.4451 31.2689 58.4451H37.0844V59.4669C37.0844 61.9463 39.1015 63.9632 41.5807 63.9632H54.0042C56.4835 63.9632 58.5005 61.9461 58.5005 59.4669V48.2691C58.5006 45.7897 56.4836 43.7727 54.0043 43.7727ZM56.6257 48.269V49.8056H48.1888V45.6476H54.0043C55.4497 45.6476 56.6257 46.8236 56.6257 48.269ZM28.6477 42.7509C28.6477 41.3055 29.8236 40.1297 31.269 40.1297H43.6925C45.1379 40.1297 46.3139 41.3056 46.3139 42.7509V44.2875H28.6478V42.7509H28.6477ZM43.2475 18.1702C45.3837 18.2496 47.0973 20.0114 47.0973 22.1665C47.0973 24.3216 45.3837 26.0834 43.2475 26.1628V18.1702ZM38.6347 10.1171C38.7693 9.79187 39.0837 9.58174 39.4357 9.58174H41.31C41.3445 9.58174 41.3725 9.60972 41.3725 9.64421V34.6889C41.3725 34.7234 41.3445 34.7514 41.31 34.7514H39.4357C39.0837 34.7514 38.7692 34.5413 38.6347 34.216C37.0186 30.3116 33.244 27.7886 29.0183 27.7886H25.3859V16.5442H29.0183C33.2439 16.5444 37.0186 14.0214 38.6347 10.1171ZM7.72206 23.702C6.87542 23.702 6.18669 23.0133 6.18669 22.1666C6.18669 21.32 6.87542 20.6313 7.72206 20.6313H10.3914V23.7021H7.72206V23.702ZM12.2664 26.2263V18.1068C12.2664 17.2452 12.9674 16.5444 13.8289 16.5444H19.5585V27.7889H13.8289C12.9673 27.7888 12.2664 27.0878 12.2664 26.2263ZM21.4336 27.7888V16.5442H23.5109V27.7886H21.4336V27.7888ZM29.0183 29.6638C32.4827 29.6638 35.5773 31.7321 36.9023 34.9332C37.328 35.9618 38.3225 36.6266 39.4358 36.6266H41.3101C42.3785 36.6266 43.2476 35.7574 43.2476 34.6891V28.0381C46.4178 27.9578 48.9725 25.3559 48.9725 22.1668C48.9725 18.9776 46.4178 16.3757 43.2476 16.2954V12.9226H50.5456V42.0627C50.5456 42.6633 50.4143 43.2418 50.1668 43.773H48.189V42.7512C48.189 40.2718 46.172 38.2549 43.6928 38.2549H31.2693C30.5658 38.2549 29.8997 38.4177 29.3062 38.7069L28.756 38.2012C28.5367 37.9997 28.3365 37.781 28.1522 37.5509C29.4192 37.0548 30.3193 35.8212 30.3193 34.3804C30.3193 32.5614 28.8854 31.0711 27.0886 30.9806L27.21 29.6641H29.0183V29.6638ZM27.2124 35.8797C26.9153 35.0672 26.7925 34.1905 26.8733 33.3142L26.916 32.851C27.7588 32.8515 28.4443 33.5372 28.4443 34.3801C28.4443 35.1214 27.9137 35.7408 27.2124 35.8797ZM28.6477 53.9489V46.1626H46.3137V53.9489C46.3137 55.3943 45.1378 56.5702 43.6924 56.5702H31.2689C29.8236 56.5701 28.6477 55.3943 28.6477 53.9489ZM54.0043 62.0882H41.5808C40.1354 62.0882 38.9596 60.9122 38.9596 59.4668V58.445H41.3964C41.3904 58.4878 41.3863 58.531 41.3863 58.5753C41.3863 59.0932 41.8061 59.5128 42.3238 59.5128H53.4198C53.9375 59.5128 54.3572 59.093 54.3572 58.5753C54.3572 58.0576 53.9375 57.6379 53.4198 57.6379H46.2583C46.9615 57.1473 47.5184 56.4615 47.8497 55.6593H53.4197C53.9374 55.6593 54.3571 55.2395 54.3571 54.7218C54.3571 54.2041 53.9374 53.7843 53.4197 53.7843H48.1885V51.6807H56.6254V59.4669C56.6257 60.9124 55.4497 62.0882 54.0043 62.0882Z" fill="#303030"/>
<path d="M5.36475 6.54546C5.36475 8.1679 6.68474 9.48789 8.30718 9.48789C9.92962 9.48789 11.2496 8.1679 11.2496 6.54546C11.2496 4.92302 9.92962 3.60303 8.30718 3.60303C6.68474 3.60303 5.36475 4.92302 5.36475 6.54546ZM9.37469 6.54546C9.37469 7.134 8.89584 7.61285 8.3073 7.61285C7.71877 7.61285 7.23992 7.134 7.23992 6.54546C7.23992 5.95692 7.71877 5.47807 8.3073 5.47807C8.89584 5.47807 9.37469 5.9568 9.37469 6.54546Z" fill="#303030"/>
<path d="M15.2309 5.73145C14.7132 5.73145 14.2935 6.1512 14.2935 6.66891C14.2935 7.18661 14.7132 7.60637 15.2309 7.60637H22.7341C23.2518 7.60637 23.6716 7.18661 23.6716 6.66891C23.6716 6.1512 23.2518 5.73145 22.7341 5.73145H15.2309Z" fill="#303030"/>
<path d="M26.7248 5.73145C26.2071 5.73145 25.7874 6.1512 25.7874 6.66891C25.7874 7.18661 26.2071 7.60637 26.7248 7.60637H29.4416C29.9593 7.60637 30.3791 7.18661 30.3791 6.66891C30.3791 6.1512 29.9593 5.73145 29.4416 5.73145H26.7248Z" fill="#303030"/>
<path d="M59.0625 22.104H55.3906C54.8729 22.104 54.4531 22.5238 54.4531 23.0415C54.4531 23.5592 54.8729 23.9789 55.3906 23.9789H59.0625C59.5802 23.9789 59.9999 23.5592 59.9999 23.0415C59.9999 22.5238 59.5802 22.104 59.0625 22.104Z" fill="#303030"/>
<path d="M55.391 16.4218C55.6093 16.4218 55.8287 16.3459 56.0062 16.1913L58.7438 13.8076C59.1343 13.4677 59.1753 12.8754 58.8352 12.485C58.4953 12.0945 57.903 12.0535 57.5126 12.3936L54.7751 14.7772C54.3845 15.1171 54.3436 15.7094 54.6836 16.0998C54.8689 16.3128 55.1292 16.4218 55.391 16.4218Z" fill="#303030"/>
<path d="M58.7438 32.2753L56.0062 29.8916C55.6158 29.5516 55.0235 29.5925 54.6836 29.9831C54.3436 30.3735 54.3845 30.9658 54.7751 31.3057L57.5126 33.6893C57.6901 33.844 57.9095 33.9198 58.1279 33.9198C58.3896 33.9198 58.65 33.8107 58.8352 33.5979C59.1752 33.2075 59.1343 32.6152 58.7438 32.2753Z" fill="#303030"/>
<path d="M44.0454 49.2036C44.0454 48.6859 43.6256 48.2661 43.1079 48.2661H32.0119C31.4942 48.2661 31.0745 48.6859 31.0745 49.2036C31.0745 49.7213 31.4942 50.141 32.0119 50.141H43.1079C43.6257 50.141 44.0454 49.7214 44.0454 49.2036Z" fill="#303030"/>
<path d="M39.1838 52.1201H32.0119C31.4942 52.1201 31.0745 52.5399 31.0745 53.0576C31.0745 53.5754 31.4942 53.995 32.0119 53.995H39.1838C39.7015 53.995 40.1213 53.5753 40.1213 53.0576C40.1213 52.5399 39.7015 52.1201 39.1838 52.1201Z" fill="#303030"/>
</svg>

<svg width="60" height="64" fill="none" xmlns="http://www.w3.org/2000/svg"><path d="M54.004 43.773h-1.833c.164-.549.25-1.123.25-1.71V5.936A5.944 5.944 0 0046.482 0H5.937A5.944 5.944 0 000 5.937V17.23a.938.938 0 001.875 0v-4.307h29.353a.938.938 0 000-1.875H1.875v-5.11a4.067 4.067 0 014.062-4.062h40.546a4.067 4.067 0 014.062 4.062v5.11h-7.297V9.644a1.94 1.94 0 00-1.938-1.937h-1.874A2.733 2.733 0 0036.902 9.4a8.507 8.507 0 01-7.884 5.27h-15.19a3.442 3.442 0 00-3.437 3.437v.65H7.722c-1.88 0-3.41 1.53-3.41 3.41 0 1.88 1.53 3.41 3.41 3.41h2.67v.65a3.441 3.441 0 003.437 3.437h2.24l1.64 3.117a.938.938 0 001.66-.873l-1.182-2.244h7.14l-.32 3.478a7.822 7.822 0 002.48 6.44l.325.298a4.475 4.475 0 00-1.04 2.871v.19l-1.028.458a.313.313 0 01-.403-.14l-4.007-7.614a.937.937 0 10-1.66.873l4.007 7.614c.389.74 1.151 1.196 1.94 1.169.631-.022 1.152-.307 1.152-.307v1.131H5.937a4.067 4.067 0 01-4.062-4.062V21.824a.937.937 0 00-1.875 0v20.239A5.944 5.944 0 005.937 48h20.836v5.949a4.501 4.501 0 004.496 4.496h5.815v1.022a4.501 4.501 0 004.497 4.496h12.423a4.501 4.501 0 004.497-4.496V48.269a4.501 4.501 0 00-4.497-4.496zm2.622 4.496v1.537h-8.437v-4.158h5.815a2.624 2.624 0 012.622 2.621zm-27.978-5.518a2.624 2.624 0 012.621-2.621h12.424a2.624 2.624 0 012.62 2.62v1.538H28.649V42.75zm14.6-24.58a4.004 4.004 0 013.85 3.995 4.004 4.004 0 01-3.85 3.997V18.17zm-4.613-8.054a.864.864 0 01.8-.535h1.875c.034 0 .063.028.063.062V34.69a.063.063 0 01-.063.062h-1.874a.864.864 0 01-.801-.535 10.377 10.377 0 00-9.617-6.427h-3.632V16.544h3.632c4.226 0 8-2.523 9.617-6.427zM7.722 23.702a1.537 1.537 0 01-1.535-1.535c0-.847.688-1.536 1.535-1.536h2.67v3.071h-2.67zm4.544 2.524v-8.12c0-.86.701-1.562 1.563-1.562h5.73V27.79h-5.73a1.564 1.564 0 01-1.563-1.563zm9.168 1.563V16.544h2.077V27.79h-2.077zm7.584 1.875a8.507 8.507 0 017.884 5.27 2.734 2.734 0 002.534 1.693h1.874a1.94 1.94 0 001.938-1.938v-6.65a5.88 5.88 0 005.724-5.872 5.881 5.881 0 00-5.724-5.872v-3.372h7.298v29.14c0 .6-.132 1.179-.38 1.71H48.19v-1.022a4.501 4.501 0 00-4.496-4.496H31.269a4.47 4.47 0 00-1.963.452l-.55-.506c-.22-.201-.42-.42-.604-.65a3.409 3.409 0 002.167-3.17 3.408 3.408 0 00-3.23-3.4l.121-1.317h1.808zm-1.806 6.216a5.9 5.9 0 01-.339-2.566l.043-.463a1.53 1.53 0 011.528 1.53c0 .74-.53 1.36-1.232 1.499zm1.436 18.069v-7.786h17.666v7.786a2.624 2.624 0 01-2.622 2.621H31.27a2.624 2.624 0 01-2.621-2.621zm25.356 8.14H41.581a2.624 2.624 0 01-2.621-2.622v-1.022h2.436a.937.937 0 00.927 1.068H53.42a.938.938 0 000-1.875h-7.162a4.521 4.521 0 001.592-1.979h5.57a.938.938 0 000-1.875h-5.232v-2.103h8.437v7.786a2.624 2.624 0 01-2.62 2.621z" fill="#303030"/><path d="M5.365 6.545a2.946 2.946 0 002.942 2.943 2.946 2.946 0 002.943-2.943 2.946 2.946 0 00-2.943-2.942 2.946 2.946 0 00-2.942 2.942zm4.01 0a1.069 1.069 0 01-2.135 0 1.069 1.069 0 012.135 0zM15.23 5.731a.937.937 0 000 1.875h7.504a.938.938 0 000-1.875h-7.503zM26.725 5.731a.937.937 0 000 1.875h2.717a.938.938 0 000-1.875h-2.717zM59.063 22.104H55.39a.938.938 0 000 1.875h3.672a.937.937 0 000-1.875zM55.391 16.422a.934.934 0 00.615-.23l2.738-2.384a.937.937 0 10-1.231-1.414l-2.738 2.383a.937.937 0 00.616 1.645zM58.744 32.275l-2.738-2.383a.937.937 0 10-1.23 1.414l2.737 2.383a.933.933 0 001.322-.091c.34-.39.3-.983-.091-1.323zM44.045 49.204a.938.938 0 00-.937-.938H32.012a.938.938 0 000 1.875h11.096c.518 0 .937-.42.937-.937zM39.184 52.12h-7.172a.938.938 0 000 1.875h7.172a.938.938 0 000-1.875z" fill="#303030"/></svg>
